X:66
T:Greenage Hornpipe. JBu.66
O:England,South Yorkshire
S:Joshua Burnett’s MS,c1835,S.Yorkshire
M:4/4
L:1/8
Q:1/2=90
R:.hornpipe
Z:vmp.R.Greig.2011
K:Bb
fe|dbca BgAf|GABG F2DF|B2FBd2Bd|fede c2 fe|
dbca BgAf|GABG F2 fg/a/|bagf defg|a2f2f2:|
|:fg/a/|b2bbb2G2|g2ggg2E2|c2cd edcB|cBAG F2FE|
DFAd EGBe|FAcg Bdfb|edcB GABc|d2B2B2:|

